svgs/thin/square-s.svg

<svg xmlns="http://www.w3.org/2000/svg" viewBox="0 0 448 512"><!--! Font Awesome Pro 6.3.0 by @fontawesome - https://fontawesome.com License - https://fontawesome.com/license (Commercial License) Copyright 2023 Fonticons, Inc. --><path d="M384 32H64C28.65 32 0 60.65 0 96v320c0 35.35 28.65 64 64 64h320c35.35 0 64-28.65 64-64V96C448 60.65 419.3 32 384 32zM432 416c0 26.47-21.53 48-48 48H64c-26.47 0-48-21.53-48-48V96c0-26.47 21.53-48 48-48h320c26.47 0 48 21.53 48 48V416zM226 248.3C170.8 233.9 137.8 222.3 145 184.1c2.156-11.48 8.875-21.16 19.41-27.98c16.31-10.58 50.5-19.58 120.6-2.719c4.281 .9844 8.625-1.609 9.656-5.906S293 138.9 288.7 137.8c-60.66-14.59-105.3-12.95-133 4.844C141.4 151.1 132.3 165.2 129.3 181.1c-10.5 55.64 44.34 70 92.72 82.67c55.25 14.47 88.25 26 81.03 64.23c-2.594 13.73-9.594 23.66-21.44 30.36c-33.53 18.91-95.72 7-142.8-10.42c-4.031-1.531-8.75 .5781-10.28 4.719s.5625 8.75 4.719 10.28c16.78 6.219 61.28 21.06 103.1 21.06c19.25 0 37.94-3.141 53.09-11.7c15.97-9.047 25.81-22.94 29.31-41.33C329.3 275.4 274.4 261 226 248.3z"/></svg>

<svg xmlns="http://www.w3.org/2000/svg" viewBox="0 0 448 512"><!-- Font Awesome Pro 6.0.0-alpha2 by @fontawesome - https://fontawesome.com License - https://fontawesome.com/license (Commercial License) --><path d="M384 32H64C28.654 32 0 60.654 0 96V416C0 451.346 28.654 480 64 480H384C419.346 480 448 451.346 448 416V96C448 60.654 419.346 32 384 32ZM432 416C432 442.467 410.467 464 384 464H64C37.533 464 16 442.467 16 416V96C16 69.533 37.533 48 64 48H384C410.467 48 432 69.533 432 96V416ZM226.031 248.328C170.781 233.875 137.781 222.328 145 184.109C147.156 172.625 153.875 162.953 164.406 156.125C180.719 145.547 214.906 136.547 284.969 153.406C289.25 154.391 293.594 151.797 294.625 147.5S293 138.875 288.719 137.844C228.062 123.25 183.375 124.891 155.719 142.688C141.406 151.953 132.281 165.234 129.25 181.141C118.75 236.781 173.594 251.141 221.969 263.812C277.219 278.281 310.219 289.812 303 328.047C300.406 341.781 293.406 351.703 281.562 358.406C248.031 377.312 185.844 365.406 138.781 347.984C134.75 346.453 130.031 348.562 128.5 352.703S129.062 361.453 133.219 362.984C150 369.203 194.5 384.047 236.344 384.047C255.594 384.047 274.281 380.906 289.437 372.344C305.406 363.297 315.25 349.406 318.75 331.016C329.25 275.359 274.406 261 226.031 248.328Z"/></svg>
